X: 146
T:S
R:jig
Z:added by Alf 
M:6/8
L:1/8
K:D
|:d|\
AFF FED|AFF F2d|AFF FEF|DB,B, B,2d|
AFF FED|ABA FED|EFG FEF|DB,B, B,2:|
|:A|\
dcd ede|fdB AFA|dcd ede|fdB Bde|
fdf ece|dBc dcB|AFF FEF|DB,B, B,2:|
